X:7
T:Schottische 1/7
R:Schottische
C:CD 1, track7
B:Scan Tester,"I Never Played To Many Posh Dances"
Z:Chris Partington, 2011 <www.cpartington.plus.com>
M:4/4
L:1/8
Q:1/2=80
K:C
zG|"_this uncertain"c2d2 (3edc G>c|e>d (3cBA G4|G>AB>c d>ef>g|(3aba g2 g3E|
G2c>d (3edc G>c|e>d (3cBA G4|G>AB>c d>cA>B|c2(3ccc c2:|
|:A>B|c3B c>BA>G|c2d2 e4|e<gf>e (3dBA G2|d>fe>d (3cBA G2|
G2A>B c>BA>G|c2d2 e4|e<gf2 e2d>c|d>cA>B c2 :|

